iconset_bforartists_2/row 5/CONSOLE.svg

<?xml version="1.0" encoding="UTF-8" standalone="no"?>
<!-- Created with Inkscape (http://www.inkscape.org/) -->

<svg
   xmlns:dc="http://purl.org/dc/elements/1.1/"
   xmlns:cc="http://creativecommons.org/ns#"
   xmlns:rdf="http://www.w3.org/1999/02/22-rdf-syntax-ns#"
   xmlns:svg="http://www.w3.org/2000/svg"
   xmlns="http://www.w3.org/2000/svg"
   xmlns:sodipodi="http://sodipodi.sourceforge.net/DTD/sodipodi-0.dtd"
   xmlns:inkscape="http://www.inkscape.org/namespaces/inkscape"
   version="1.1"
   id="svg2"
   width="16"
   height="16"
   viewBox="0 0 16.000001 16.000001"
   sodipodi:docname="CONSOLE.svg"
   inkscape:version="0.92.4 (5da689c313, 2019-01-14)">
  <metadata
     id="metadata8">
    <rdf:RDF>
      <cc:Work
         rdf:about="">
        <dc:format>image/svg+xml</dc:format>
        <dc:type
           rdf:resource="http://purl.org/dc/dcmitype/StillImage" />
        <dc:title></dc:title>
      </cc:Work>
    </rdf:RDF>
  </metadata>
  <defs
     id="defs6" />
  <sodipodi:namedview
     pagecolor="#ffffff"
     bordercolor="#666666"
     borderopacity="1"
     objecttolerance="10"
     gridtolerance="10"
     guidetolerance="10"
     inkscape:pageopacity="0"
     inkscape:pageshadow="2"
     inkscape:window-width="1217"
     inkscape:window-height="806"
     id="namedview4"
     showgrid="false"
     fit-margin-top="0"
     fit-margin-left="0"
     fit-margin-right="0"
     fit-margin-bottom="0"
     inkscape:zoom="17.227539"
     inkscape:cx="6.1529391"
     inkscape:cy="7.778244"
     inkscape:window-x="0"
     inkscape:window-y="0"
     inkscape:window-maximized="0"
     inkscape:current-layer="svg2" />
  <g
     id="CONSOLE">
    <path
       style="fill:#ffffff;stroke-width:0.03125"
       d="M 0,7.9999999 V 0 H 7.9999999 16 V 7.9999999 16 H 7.9999999 0 Z m 14.421874,5.9069951 c 0.199214,-0.09866 0.386466,-0.285907 0.485122,-0.48512 l 0.07738,-0.15625 V 7.9999999 2.734375 L 14.906996,2.5781249 C 14.80834,2.3789118 14.621088,2.1916603 14.421874,2.0930043 L 14.265625,2.015625 H 7.9999999 1.734375 L 1.578125,2.093004 C 1.3789118,2.1916603 1.1916604,2.3789118 1.0930044,2.5781249 l -0.07738,0.1562501 -0.0085,5.2031249 c -0.007684,4.7049651 -0.0037,5.2179041 0.041633,5.3574811 0.1014751,0.312447 0.3279049,0.54389 0.6389081,0.653053 0.1263535,0.04435 0.7648791,0.04865 6.3592065,0.04282 l 6.218751,-0.0064 z"
       id="path825"
       inkscape:connector-curvature="0" />
    <path
       style="fill:#fefefe;stroke-width:0.03125"
       d="M 3.7343749,12.659379 C 3.4789321,12.540858 3.3119274,12.282905 3.3131862,12.008816 3.3140487,11.821205 3.4151255,11.609157 3.6701694,11.259912 3.7226699,11.18802 3.8078125,11.05648 3.8593749,10.9676 3.9109375,10.878721 4.0023436,10.745644 4.0625,10.671875 4.1226562,10.598105 4.2140624,10.465287 4.2656249,10.376722 4.3171875,10.288158 4.4085936,10.146758 4.46875,10.0625 4.5289062,9.9782421 4.6203124,9.8379683 4.6718749,9.7507811 4.7234375,9.6635936 4.8535155,9.4703599 4.9609374,9.3213726 5.0683593,9.1723855 5.1562499,9.0374358 5.1562499,9.0214848 c 0,-0.042419 -0.1551141,-0.2863402 -0.28125,-0.4422734 C 4.8148436,8.5048445 4.7234375,8.371537 4.6718749,8.2829724 4.6203124,8.194408 4.5253905,8.0497811 4.4609374,7.9615792 4.3964842,7.8733771 4.3437499,7.792229 4.3437499,7.7812498 c 0,-0.010979 -0.052735,-0.092646 -0.1171875,-0.1814821 C 4.1621093,7.5109318 4.0679793,7.3712827 4.0173843,7.2894364 3.9667896,7.2075899 3.8806499,7.0843749 3.8259634,7.0156249 3.7712764,6.9468748 3.7031799,6.8484374 3.6746374,6.7968748 3.6460946,6.7453124 3.5810908,6.6398437 3.5301843,6.5624998 3.3680694,6.3161943 3.3138725,6.1791748 3.3138725,6.0156249 c 0,-0.4987472 0.5344859,-0.8487069 0.9842121,-0.6444228 0.1334775,0.060631 0.35493,0.2897441 0.4567484,0.4725478 0.1173404,0.2106715 0.1990734,0.3351125 0.2920419,0.4446409 0.051562,0.060747 0.1359375,0.183116 0.1875,0.271931 0.051562,0.088815 0.1464843,0.2336468 0.2109375,0.3218487 0.064453,0.088203 0.1171875,0.1693504 0.1171875,0.1803294 0,0.010979 0.052734,0.092647 0.1171875,0.1814821 0.064453,0.088836 0.1588125,0.2284851 0.2096876,0.3103313 0.050876,0.081847 0.1422812,0.2142738 0.2031249,0.2942835 0.060844,0.080009 0.1528125,0.2180637 0.204375,0.3067872 0.051562,0.088724 0.1402594,0.2238643 0.1971043,0.3003124 0.1506654,0.2026241 0.1936047,0.3288225 0.1928344,0.5667372 -9.125e-4,0.2816575 -0.05808,0.3982453 -0.482575,0.9841614 -0.1209249,0.166909 -0.2620513,0.375018 -0.3136137,0.462464 -0.051562,0.08745 -0.1429687,0.227933 -0.203125,0.312191 -0.060156,0.08426 -0.1515624,0.22553 -0.203125,0.313939 -0.051562,0.08841 -0.1435312,0.226205 -0.204375,0.306214 -0.060844,0.08001 -0.15225,0.212696 -0.2031249,0.294857 -0.050876,0.08217 -0.1360857,0.208726 -0.1893573,0.281251 -0.053271,0.07252 -0.1186552,0.174052 -0.1452972,0.225614 -0.083395,0.1614 -0.3125456,0.397149 -0.4441359,0.456922 -0.1619866,0.07358 -0.4043031,0.07329 -0.5637097,-6.68e-4 z M 7.9999999,11 V 9.9999998 H 9.9999998 12 V 11 12 H 9.9999998 7.9999999 Z M 12,3.4999999 v -0.5 h 1 0.999999 v 0.5 V 4 H 13 12 Z"
       id="path823"
       inkscape:connector-curvature="0" />
    <path
       style="fill:#7f7f7f;stroke-width:0.03125"
       d="M 1.9999999,8.9999998 V 5 h 6 5.9999991 V 8.9999998 13 h -5.9999991 -6 z m 2.2980847,3.6600472 c 0.1315903,-0.05978 0.360741,-0.295522 0.4441359,-0.456922 0.026642,-0.05157 0.092025,-0.153089 0.1452972,-0.225614 0.053272,-0.07253 0.1384822,-0.199087 0.1893573,-0.281251 0.050875,-0.08216 0.1422812,-0.214847 0.2031249,-0.294857 0.060844,-0.08001 0.1528125,-0.217806 0.204375,-0.306214 0.051563,-0.08841 0.1429687,-0.229681 0.203125,-0.313939 0.060156,-0.08426 0.1515625,-0.224744 0.203125,-0.312191 0.051562,-0.08745 0.1926888,-0.295555 0.3136137,-0.462464 C 6.6287336,9.4206789 6.6859015,9.3040911 6.6868136,9.0224336 6.6875855,8.7845189 6.6446446,8.6583205 6.4939792,8.4556964 6.4371343,8.3792483 6.3484373,8.2441077 6.2968749,8.155384 6.2453124,8.0666605 6.1533436,7.9286061 6.0924999,7.8485968 6.0316562,7.7685871 5.9402499,7.6361599 5.889375,7.5543133 5.8384999,7.4724671 5.7441405,7.3328179 5.6796874,7.243982 5.6152342,7.1551461 5.5624999,7.0734789 5.5624999,7.0624999 c 0,-0.010979 -0.052735,-0.092127 -0.1171875,-0.1803294 C 5.3808592,6.7939686 5.2859374,6.6491367 5.2343749,6.5603218 5.1828124,6.4715068 5.0984374,6.3491377 5.0468749,6.2883908 4.9539064,6.1788624 4.8721734,6.0544214 4.754833,5.8437499 4.6530146,5.6609462 4.4315621,5.431833 4.2980846,5.3712021 3.8483584,5.166918 3.3138725,5.5168777 3.3138725,6.0156249 c 0,0.1635499 0.054197,0.3005694 0.2163118,0.5468749 0.050906,0.077344 0.1159104,0.1828126 0.1444531,0.234375 0.028543,0.051562 0.096639,0.15 0.151326,0.2187501 0.054687,0.06875 0.1408262,0.191965 0.1914209,0.2738115 0.050595,0.081847 0.144725,0.2214954 0.2091781,0.3103313 0.064453,0.088836 0.1171875,0.1705031 0.1171875,0.1814821 0,0.010979 0.052734,0.092127 0.1171875,0.1803294 0.064453,0.088201 0.159375,0.2328288 0.2109375,0.3213932 0.051562,0.088565 0.1429687,0.2218721 0.203125,0.296239 0.1261359,0.1559332 0.28125,0.3998543 0.28125,0.4422734 0,0.015951 -0.087891,0.1509007 -0.1953125,0.2998878 C 4.8535155,9.4703599 4.7234375,9.6635936 4.6718749,9.7507811 4.6203124,9.8379683 4.5289062,9.9782421 4.46875,10.0625 4.408594,10.14676 4.3171875,10.288158 4.2656249,10.376722 4.2140629,10.465292 4.1226562,10.598105 4.0625,10.671875 4.002344,10.745645 3.9109375,10.878721 3.8593749,10.9676 c -0.051562,0.08888 -0.136705,0.22042 -0.1892055,0.292312 -0.2550439,0.349245 -0.3561216,0.561293 -0.3569832,0.748904 -0.0023,0.50248 0.5330609,0.856475 0.9848984,0.651231 z M 12,11 V 9.9999998 H 9.9999998 7.9999999 V 11 12 H 9.9999998 12 Z"
       id="path821"
       inkscape:connector-curvature="0" />
    <path
       style="fill:#191919;stroke-width:0.03125"
       d="M 1.6876684,13.948034 C 1.3766652,13.838871 1.1502352,13.607428 1.0487602,13.294981 1.003429,13.155404 0.99944301,12.642465 1.0071272,7.9374999 l 0.0085,-5.2031249 0.07738,-0.1562501 C 1.1916604,2.3789118 1.3789118,2.1916603 1.578125,2.0930043 l 0.15625,-0.077379 h 6.2656249 6.2656251 l 0.156249,0.077379 c 0.199214,0.098656 0.386466,0.2859075 0.485122,0.4851206 l 0.07738,0.1562501 v 5.2656249 5.2656251 l -0.07738,0.15625 c -0.09866,0.199213 -0.285908,0.386464 -0.485122,0.48512 l -0.156249,0.07738 -6.2187501,0.0064 c -5.5943274,0.0058 -6.2328531,0.0015 -6.3592065,-0.04282 z M 13.999999,8.9999998 V 5 h -5.9999991 -6 V 8.9999998 13 h 6 5.9999991 z m 0,-5.4999999 v -0.5 H 13 12 v 0.5 V 4 h 1 0.999999 z"
       id="path819"
       inkscape:connector-curvature="0" />
  </g>
</svg>

<?xml version="1.0" encoding="UTF-8" standalone="no"?>
<!-- Created with Inkscape (http://www.inkscape.org/) -->

<svg
   xmlns:dc="http://purl.org/dc/elements/1.1/"
   xmlns:cc="http://creativecommons.org/ns#"
   xmlns:rdf="http://www.w3.org/1999/02/22-rdf-syntax-ns#"
   xmlns:svg="http://www.w3.org/2000/svg"
   xmlns="http://www.w3.org/2000/svg"
   xmlns:sodipodi="http://sodipodi.sourceforge.net/DTD/sodipodi-0.dtd"
   xmlns:inkscape="http://www.inkscape.org/namespaces/inkscape"
   version="1.1"
   id="svg2"
   width="16"
   height="16"
   viewBox="0 0 16 16"
   sodipodi:docname="CONSOLE.svg"
   inkscape:version="0.92.4 (5da689c313, 2019-01-14)">
  <metadata
     id="metadata8">
    <rdf:RDF>
      <cc:Work
         rdf:about="">
        <dc:format>image/svg+xml</dc:format>
        <dc:type
           rdf:resource="http://purl.org/dc/dcmitype/StillImage" />
        <dc:title></dc:title>
      </cc:Work>
    </rdf:RDF>
  </metadata>
  <defs
     id="defs6" />
  <sodipodi:namedview
     pagecolor="#ffffff"
     bordercolor="#666666"
     borderopacity="1"
     objecttolerance="10"
     gridtolerance="10"
     guidetolerance="10"
     inkscape:pageopacity="0"
     inkscape:pageshadow="2"
     inkscape:window-width="828"
     inkscape:window-height="480"
     id="namedview4"
     showgrid="false"
     inkscape:zoom="14.75"
     inkscape:cx="8"
     inkscape:cy="8"
     inkscape:window-x="0"
     inkscape:window-y="0"
     inkscape:window-maximized="0"
     inkscape:current-layer="svg2" />
  <g
     id="CONSOLE">
    <path
       style="fill:#ffffff;stroke-width:0.03125"
       d="M 0,8 V 0 h 8 8 v 8 8 H 8 0 Z m 14.421875,5.906996 c 0.199213,-0.09866 0.386465,-0.285908 0.485121,-0.485121 l 0.07738,-0.15625 V 8 2.734375 l -0.07738,-0.15625 C 14.80834,2.3789118 14.621088,2.1916604 14.421875,2.0930044 L 14.265625,2.015625 H 8 1.734375 L 1.578125,2.093004 C 1.3789118,2.1916604 1.1916604,2.3789118 1.0930044,2.578125 l -0.077379,0.15625 -0.0085,5.203125 c -0.007684,4.704965 -0.0037,5.217903 0.041633,5.357481 0.1014751,0.312447 0.327905,0.543891 0.6389082,0.653054 0.1263534,0.04435 0.7648791,0.04865 6.3592066,0.04282 l 6.2187498,-0.0065 z"
       id="path825"
       inkscape:connector-curvature="0" />
    <path
       style="fill:#fefefe;stroke-width:0.03125"
       d="M 3.734375,12.65938 C 3.4789322,12.540859 3.3119275,12.282905 3.3131863,12.008816 3.3140488,11.821205 3.4151256,11.609157 3.6701694,11.259912 3.72267,11.18802 3.8078125,11.05648 3.859375,10.9676 3.9109375,10.878721 4.0023438,10.745644 4.0625,10.671875 4.1226563,10.598106 4.2140625,10.465287 4.265625,10.376722 4.3171875,10.288158 4.4085937,10.146758 4.46875,10.0625 4.5289063,9.9782422 4.6203125,9.8379684 4.671875,9.7507812 4.7234375,9.6635937 4.8535156,9.47036 4.9609375,9.3213728 5.0683594,9.1723856 5.15625,9.0374359 5.15625,9.021485 5.15625,8.9790659 5.0011359,8.7351447 4.875,8.5792116 4.8148437,8.5048447 4.7234375,8.3715372 4.671875,8.2829725 4.6203125,8.1944081 4.5253906,8.0497812 4.4609375,7.9615794 4.3964844,7.8733772 4.34375,7.7922291 4.34375,7.78125 4.34375,7.7702709 4.2910156,7.6886038 4.2265625,7.5997678 4.1621094,7.5109319 4.0679794,7.3712828 4.0173844,7.2894366 3.9667897,7.20759 3.88065,7.084375 3.8259634,7.015625 3.7712766,6.946875 3.70318,6.8484375 3.6746375,6.796875 3.6460947,6.7453125 3.5810909,6.6398437 3.5301844,6.5625 3.3680694,6.3161944 3.3138725,6.179175 3.3138725,6.015625 c 0,-0.4987472 0.5344859,-0.8487069 0.9842122,-0.6444228 0.1334775,0.060631 0.35493,0.289744 0.4567484,0.4725478 0.1173403,0.2106716 0.1990735,0.3351125 0.2920419,0.4446409 0.051563,0.060747 0.1359375,0.183116 0.1875,0.271931 0.051563,0.088815 0.1464844,0.2336468 0.2109375,0.3218487 C 5.5097656,6.9703728 5.5625,7.0515209 5.5625,7.0625 c 0,0.010979 0.052734,0.092646 0.1171875,0.1814822 C 5.7441406,7.3328181 5.8385,7.4724672 5.889375,7.5543134 5.94025,7.63616 6.0316562,7.7685872 6.0925,7.8485969 6.153344,7.9286059 6.2453125,8.0666606 6.296875,8.1553841 6.348438,8.2441081 6.4371344,8.3792484 6.4939794,8.4556966 6.6446447,8.6583206 6.6875841,8.7845191 6.6868137,9.0224337 6.6859012,9.3040912 6.6287337,9.4206791 6.2042387,10.006595 6.0833137,10.173504 5.9421875,10.381613 5.890625,10.469059 5.839062,10.556509 5.7476563,10.696992 5.6875,10.78125 5.627344,10.86551 5.5359375,11.00678 5.484375,11.095189 5.432812,11.183599 5.3408438,11.321394 5.28,11.401403 5.219156,11.481413 5.12775,11.614099 5.076875,11.696261 5.026,11.778421 4.9407894,11.904986 4.8875178,11.977511 4.8342458,12.050041 4.7688625,12.151562 4.7422206,12.203125 4.6588256,12.364526 4.429675,12.600274 4.2980847,12.660048 4.1360981,12.733628 3.8937816,12.733338 3.734375,12.65938 Z M 8,11 v -1 h 2 2 v 1 1 H 10 8 Z M 12,3.5 V 3 h 1 1 V 3.5 4 h -1 -1 z"
       id="path823"
       inkscape:connector-curvature="0" />
    <path
       style="fill:#3298fe;stroke-width:0.03125"
       d="M 1.6876684,13.948035 C 1.3766652,13.838872 1.1502352,13.607428 1.0487602,13.294981 1.0034291,13.155403 0.99944303,12.642465 1.0071272,7.9375 l 0.0085,-5.203125 0.077379,-0.15625 C 1.1916604,2.3789118 1.3789118,2.1916604 1.578125,2.0930044 L 1.734375,2.015625 H 8 14.265625 l 0.15625,0.077379 c 0.199213,0.098656 0.386465,0.2859074 0.485121,0.4851206 l 0.07738,0.15625 V 8 13.265625 l -0.07738,0.15625 c -0.09866,0.199213 -0.285908,0.386465 -0.485121,0.485121 l -0.15625,0.07738 -6.21875,0.0065 c -5.5943275,0.0058 -6.2328532,0.0015 -6.3592066,-0.04282 z M 14,9 V 5 H 8 2 v 4 4 h 6 6 z M 14,3.5 V 3 H 13 12 V 3.5 4 h 1 1 z"
       id="path821"
       inkscape:connector-curvature="0" />
    <path
       style="fill:#323232;stroke-width:0.03125"
       d="M 2,9 V 5 h 6 6 v 4 4 H 8 2 Z m 2.2980847,3.660048 c 0.1315903,-0.05977 0.3607409,-0.295522 0.4441359,-0.456923 0.026642,-0.05156 0.092026,-0.153089 0.1452972,-0.225614 C 4.9407894,11.904986 5.026,11.778424 5.076875,11.696261 5.12775,11.614099 5.2191562,11.481413 5.28,11.401403 5.3408437,11.321394 5.4328125,11.183597 5.484375,11.095189 5.5359375,11.00678 5.6273437,10.865508 5.6875,10.78125 5.7476562,10.696992 5.8390625,10.556506 5.890625,10.469059 5.9421875,10.381613 6.0833137,10.173504 6.2042387,10.006595 6.6287337,9.4206791 6.6859016,9.3040913 6.6868137,9.0224338 6.6875856,8.7845191 6.6446447,8.6583206 6.4939794,8.4556966 6.4371344,8.3792484 6.3484375,8.2441078 6.296875,8.1553841 6.2453125,8.0666606 6.1533437,7.9286063 6.0925,7.8485969 6.0316562,7.7685872 5.94025,7.63616 5.889375,7.5543134 5.8385,7.4724672 5.7441406,7.3328181 5.6796875,7.2439822 5.6152344,7.1551462 5.5625,7.0734791 5.5625,7.0625 5.5625,7.0515209 5.5097656,6.9703728 5.4453125,6.8821706 5.3808594,6.7939687 5.2859375,6.6491369 5.234375,6.5603219 5.1828125,6.4715069 5.0984375,6.3491378 5.046875,6.2883909 4.9539066,6.1788625 4.8721734,6.0544216 4.7548331,5.84375 4.6530147,5.6609462 4.4315622,5.4318331 4.2980847,5.3712022 3.8483584,5.1669181 3.3138725,5.5168778 3.3138725,6.015625 c 0,0.16355 0.054197,0.3005694 0.2163119,0.546875 0.050906,0.077344 0.1159103,0.1828125 0.1444531,0.234375 0.028543,0.051563 0.096639,0.15 0.1513259,0.21875 0.054687,0.06875 0.1408263,0.191965 0.191421,0.2738116 0.050595,0.081846 0.144725,0.2214953 0.2091781,0.3103312 0.064453,0.088836 0.1171875,0.1705031 0.1171875,0.1814822 0,0.010979 0.052734,0.092127 0.1171875,0.1803294 0.064453,0.088202 0.159375,0.2328287 0.2109375,0.3213931 0.051563,0.088565 0.1429688,0.2218722 0.203125,0.2962391 0.1261359,0.1559331 0.28125,0.3998543 0.28125,0.4422734 0,0.015951 -0.087891,0.1509006 -0.1953125,0.2998878 C 4.8535156,9.47036 4.7234375,9.6635938 4.671875,9.7507812 4.6203125,9.8379684 4.5289063,9.9782422 4.46875,10.0625 4.408594,10.14676 4.3171875,10.288158 4.265625,10.376723 4.214062,10.465283 4.1226563,10.598106 4.0625,10.671875 4.002344,10.745645 3.9109375,10.878721 3.859375,10.9676 3.807812,11.05648 3.72267,11.18802 3.6701694,11.259913 c -0.2550438,0.349245 -0.3561216,0.561292 -0.3569831,0.748903 -0.00231,0.50248 0.5330609,0.856475 0.9848984,0.651232 z M 12,11 V 10 H 10 8 v 1 1 h 2 2 z"
       id="path819"
       inkscape:connector-curvature="0" />
  </g>
</svg>
